public/assets/images/testimonials/quote3.svg

<svg width="46" height="35" viewBox="0 0 46 35" fill="none" xmlns="http://www.w3.org/2000/svg">
<path d="M0.37054 32.0714L7.41183 15.8V6.57143C7.41183 5.47857 7.53536 4.38572 7.90595 3.29286C8.15302 2.56429 8.64715 1.95714 9.26481 1.47143C10.006 0.985713 10.8707 0.742855 11.7354 0.621427C12.8472 0.499998 13.959 0.5 15.0708 0.5C16.1826 0.5 17.2943 0.500001 18.4061 0.742858C19.2708 0.864287 20.012 1.10714 20.7532 1.59286C21.3709 2.07857 21.7415 2.68572 21.9885 3.41429C22.2356 4.50714 22.3591 5.6 22.3591 6.69286C22.3591 8.02857 22.3591 9.48571 22.1121 10.8214C21.9885 12.0357 21.7415 13.25 21.3709 14.4643C21.1238 15.5571 20.6297 16.7714 20.1356 17.7429C19.5179 18.8357 18.9003 19.9286 18.1591 21.0214L10.5001 32.3143C10.2531 32.6786 10.006 33.0429 9.63539 33.2857C9.2648 33.5286 8.8942 33.7714 8.52361 34.0143C8.02948 34.2571 7.41183 34.3786 6.91771 34.3786C6.05299 34.5 5.3118 34.5 4.44708 34.5C3.58236 34.5 2.84117 34.5 1.97645 34.3786C1.48233 34.3786 0.988195 34.1357 0.494069 33.8929C0.247007 33.7714 -4.87075e-05 33.4071 -4.87075e-05 33.0429C0.123483 32.8 0.123477 32.4357 0.37054 32.0714Z" fill="#34C759"/>
<path d="M31.1299 15.8V6.57143C31.1299 5.47857 31.2534 4.38572 31.624 3.29286C31.8711 2.56429 32.3652 1.83571 32.9829 1.47143C33.7241 0.985713 34.4653 0.742855 35.33 0.621427C36.4418 0.499998 37.6771 0.5 38.7889 0.5C39.9006 0.5 41.0124 0.500001 42.1242 0.742858C42.9889 0.864287 43.7301 1.10714 44.3478 1.59286C44.9654 2.07857 45.336 2.68572 45.5831 3.41429C45.9537 4.50714 46.0772 5.6 45.9537 6.69286C45.9537 8.02857 45.9537 9.48571 45.7066 10.8214C45.5831 12.0357 45.336 13.25 44.9654 14.4643C44.7184 15.5571 44.2242 16.7714 43.7301 17.7429C43.1125 18.8357 42.4948 19.9286 41.7536 21.0214L33.9711 32.3143C33.7241 32.6786 33.477 33.0429 33.1064 33.2857C32.7358 33.5286 32.3652 33.7714 31.9946 34.0143C31.5005 34.2571 30.8828 34.3786 30.3887 34.3786C29.6475 34.5 28.7828 34.5 28.0416 34.5C27.1769 34.5 26.4357 34.5 25.571 34.3786C25.0769 34.3786 24.5827 34.1357 24.0886 33.8929C23.8416 33.7714 23.5945 33.4071 23.5945 33.0429C23.5945 32.6786 23.718 32.3143 23.8416 31.95L31.1299 15.8Z" fill="#34C759"/>
</svg>

<svg xmlns="http://www.w3.org/2000/svg" width="46" height="35" fill="none" viewBox="0 0 46 35"><path fill="#34c759" d="M.37 32.071 7.413 15.8V6.571c0-1.092.123-2.185.494-3.278.247-.729.741-1.336 1.359-1.822.741-.485 1.606-.728 2.47-.85C12.847.5 13.96.5 15.071.5s2.223 0 3.335.243c.865.121 1.606.364 2.347.85.618.486.988 1.093 1.235 1.821q.371 1.64.371 3.279c0 1.336 0 2.793-.247 4.128a19 19 0 0 1-.741 3.643c-.247 1.093-.741 2.307-1.235 3.279-.618 1.093-1.236 2.186-1.977 3.278L10.5 32.314c-.247.365-.494.729-.865.972l-1.111.728a3.9 3.9 0 0 1-1.606.365c-.865.121-1.606.121-2.47.121-.866 0-1.607 0-2.472-.121-.494 0-.988-.243-1.482-.486-.247-.122-.494-.486-.494-.85.123-.243.123-.607.37-.972M31.13 15.8V6.571c0-1.092.123-2.185.494-3.278.247-.729.741-1.457 1.359-1.822.741-.485 1.482-.728 2.347-.85C36.442.5 37.677.5 38.789.5s2.223 0 3.335.243c.865.121 1.606.364 2.224.85.617.486.988 1.093 1.235 1.821q.555 1.64.37 3.279c0 1.336 0 2.793-.246 4.128a19 19 0 0 1-.742 3.643c-.247 1.093-.74 2.307-1.235 3.279-.617 1.093-1.235 2.186-1.976 3.278L33.97 32.314c-.247.365-.494.729-.865.972l-1.111.728a3.9 3.9 0 0 1-1.606.365c-.741.121-1.606.121-2.347.121-.865 0-1.606 0-2.471-.121-.494 0-.988-.243-1.482-.486-.247-.122-.494-.486-.494-.85s.123-.729.247-1.093z"/></svg>
